src/assets/footer/Notion.svg

<svg fill="none" height="37" viewBox="0 0 36 37" width="36" xmlns="http://www.w3.org/2000/svg"><circle cx="18" cy="18.7598" r="17.25" stroke="#000" stroke-opacity=".6" stroke-width="1.5"/><path clip-rule="evenodd" d="m12.5253 13.4431c.511.4132.6959.3805 1.6527.3153l9.0132-.5436c.1957 0 .0326-.1957-.0326-.2175l-1.5004-1.0763c-.2827-.2175-.6741-.4784-1.4026-.4132l-8.7196.6415c-.3153.0326-.3806.1957-.2501.3153zm.5437 2.0984v9.4807c0 .511.25.6959.8263.6632l9.9047-.5762c.5763-.0326.6415-.3805.6415-.7937v-9.4155c0-.4131-.1631-.6415-.511-.6088l-10.3505.6088c-.3806.0326-.511.2283-.511.6415zm9.7743.511c.0652.2827 0 .5762-.2827.6088l-.4784.0979v7.0018c-.4132.2175-.7937.3479-1.1199.3479-.511 0-.6414-.163-1.022-.6414l-3.1204-4.9035v4.7404l.9894.2174s0 .5763-.7936.5763l-2.1963.1304c-.0652-.1304 0-.4457.2175-.511l.5762-.163v-6.2626l-.7937-.0652c-.0652-.2827.0979-.6958.5436-.7284l2.3594-.1631 3.2508 4.9578v-4.3816l-.8263-.0978c-.0652-.348.1957-.6089.511-.6415zm-12.0358-4.773 9.0785-.6632c1.109-.0979 1.4025-.0326 2.0983.4784l2.8921 2.0331c.4784.3479.6415.4458.6415.8263v11.166c0 .6958-.2501 1.109-1.1416 1.1742l-10.5354.6415c-.6741.0326-.9894-.0653-1.3373-.511l-2.1419-2.7725c-.3805-.511-.54358-.8915-.54358-1.3373v-9.9265c0-.5763.26098-1.0438.98938-1.109z" fill="#000" fill-rule="evenodd"/></svg>

<svg width="36" height="37" viewBox="0 0 36 37" fill="none" xmlns="http://www.w3.org/2000/svg">
<circle cx="18" cy="18.7598" r="17.25" stroke="black" stroke-opacity="0.6" stroke-width="1.5"/>
<path fill-rule="evenodd" clip-rule="evenodd" d="M12.5253 13.4431C13.0363 13.8563 13.2212 13.8236 14.178 13.7584L23.1912 13.2148C23.3869 13.2148 23.2238 13.0191 23.1586 12.9973L21.6582 11.921C21.3755 11.7035 20.9841 11.4426 20.2556 11.5078L11.536 12.1493C11.2207 12.1819 11.1554 12.345 11.2859 12.4646L12.5253 13.4431ZM13.069 15.5415V25.0222C13.069 25.5332 13.319 25.7181 13.8953 25.6854L23.8 25.1092C24.3763 25.0766 24.4415 24.7287 24.4415 24.3155V14.9C24.4415 14.4869 24.2784 14.2585 23.9305 14.2912L13.58 14.9C13.1994 14.9326 13.069 15.1283 13.069 15.5415ZM22.8433 16.0525C22.9085 16.3352 22.8433 16.6287 22.5606 16.6613L22.0822 16.7592V23.761C21.669 23.9785 21.2885 24.1089 20.9623 24.1089C20.4513 24.1089 20.3209 23.9459 19.9403 23.4675L16.8199 18.564V23.3044L17.8093 23.5218C17.8093 23.5218 17.8093 24.0981 17.0157 24.0981L14.8194 24.2285C14.7542 24.0981 14.8194 23.7828 15.0369 23.7175L15.6131 23.5545V17.2919L14.8194 17.2267C14.7542 16.944 14.9173 16.5309 15.363 16.4983L17.7224 16.3352L20.9732 21.293V16.9114L20.1469 16.8136C20.0817 16.4656 20.3426 16.2047 20.6579 16.1721L22.8433 16.0525ZM10.8075 11.2795L19.886 10.6163C20.995 10.5184 21.2885 10.5837 21.9843 11.0947L24.8764 13.1278C25.3548 13.4757 25.5179 13.5736 25.5179 13.9541V25.1201C25.5179 25.8159 25.2678 26.2291 24.3763 26.2943L13.8409 26.9358C13.1668 26.9684 12.8515 26.8705 12.5036 26.4248L10.3617 23.6523C9.9812 23.1413 9.81812 22.7608 9.81812 22.315V12.3885C9.81812 11.8122 10.0791 11.3447 10.8075 11.2795Z" fill="black"/>
</svg>
